(Exported by FreeCAD)
(Post Processor: linuxcnc_post)
(Output Time:2023-10-27 01:16:56.957902)
(begin preamble)
G17 G54 G40 G49 G80 G90
G21
(begin operation: G54)
(machine units: mm/min)
G54 
G0 Z6.500 
(finish operation: G54)
(begin operation: TC: Default Tool)
(machine units: mm/min)
(TC: Default Tool) 
M5
M6 T1 
G43 H1 
(finish operation: TC: Default Tool)
(begin operation: RampEntryDressup010)
(machine units: mm/min)
G0 X0.000 Y0.000 Z6.500 
G0 X-14.583 Y16.418 Z6.500 
G0 X-14.583 Y16.418 Z4.500 
G1 X-14.805 Y16.595 Z4.343 
G1 X-15.056 Y16.719 Z4.177 
G1 X-15.326 Y16.786 Z4.009 
G1 X-15.605 Y16.792 Z3.843 
G1 X-15.885 Y16.739 Z3.686 
G1 X-16.159 Y16.613 Z3.533 
G1 X-16.393 Y16.438 Z3.364 
G1 X-16.579 Y16.220 Z3.185 
G1 X-16.710 Y15.967 Z3.002 
G1 X-16.781 Y15.689 Z2.822 
G1 X-16.789 Y15.396 Z2.653 
G1 X-16.734 Y15.100 Z2.500 
G1 X-16.789 Y15.396 Z2.347 
G1 X-16.781 Y15.689 Z2.178 
G1 X-16.710 Y15.967 Z1.998 
G1 X-16.579 Y16.220 Z1.815 
G1 X-16.393 Y16.438 Z1.636 
G1 X-16.159 Y16.613 Z1.467 
G1 X-15.885 Y16.739 Z1.314 
G1 X-15.605 Y16.792 Z1.157 
G1 X-15.326 Y16.786 Z0.991 
G1 X-15.056 Y16.719 Z0.823 
G1 X-14.805 Y16.595 Z0.657 
G1 X-14.583 Y16.418 Z0.500 
G3 X-15.885 Y16.739 Z0.500 I-0.917 J-0.917 
G3 X-15.366 Y14.210 Z0.500 I0.385 J-1.239 
G1 X-15.099 Y14.266 Z0.500 
G3 X-14.583 Y16.418 Z0.500 I-0.401 J1.234 
G1 X-14.748 Y16.557 Z0.375 
G1 X-14.934 Y16.667 Z0.250 
G1 X-14.748 Y16.557 Z0.125 
G1 X-14.583 Y16.418 Z0.000 
G3 X-15.885 Y16.739 Z0.000 I-0.917 J-0.917 
G3 X-15.366 Y14.210 Z0.000 I0.385 J-1.239 
G1 X-15.099 Y14.266 Z0.000 
G3 X-14.583 Y16.418 Z0.000 I-0.401 J1.234 
G0 X-14.583 Y16.418 Z6.500 
(finish operation: RampEntryDressup010)
(begin operation: RampEntryDressup009)
(machine units: mm/min)
G0 X0.000 Y0.000 Z6.500 
G0 X16.418 Y16.418 Z6.500 
G0 X16.418 Y16.418 Z4.500 
G1 X16.195 Y16.595 Z4.343 
G1 X15.944 Y16.719 Z4.177 
G1 X15.674 Y16.786 Z4.009 
G1 X15.395 Y16.792 Z3.843 
G1 X15.115 Y16.739 Z3.686 
G1 X14.843 Y16.614 Z3.534 
G1 X14.610 Y16.441 Z3.366 
G1 X14.425 Y16.225 Z3.188 
G1 X14.293 Y15.975 Z3.007 
G1 X14.220 Y15.700 Z2.829 
G1 X14.210 Y15.410 Z2.661 
G1 X14.261 Y15.115 Z2.509 
G1 X14.266 Y15.100 Z2.500 
G1 X14.261 Y15.115 Z2.491 
G1 X14.210 Y15.410 Z2.339 
G1 X14.220 Y15.700 Z2.171 
G1 X14.293 Y15.975 Z1.993 
G1 X14.425 Y16.225 Z1.812 
G1 X14.610 Y16.441 Z1.634 
G1 X14.843 Y16.614 Z1.466 
G1 X15.115 Y16.739 Z1.314 
G1 X15.395 Y16.792 Z1.157 
G1 X15.674 Y16.786 Z0.991 
G1 X15.944 Y16.719 Z0.823 
G1 X16.195 Y16.595 Z0.657 
G1 X16.418 Y16.418 Z0.500 
G3 X15.115 Y16.739 Z0.500 I-0.918 J-0.918 
G3 X14.261 Y15.115 Z0.500 I0.385 J-1.239 
G3 X15.885 Y14.261 Z0.500 I1.239 J0.385 
G3 X16.418 Y16.418 Z0.500 I-0.385 J1.239 
G1 X16.252 Y16.557 Z0.375 
G1 X16.066 Y16.667 Z0.250 
G1 X16.252 Y16.557 Z0.125 
G1 X16.418 Y16.418 Z0.000 
G3 X15.115 Y16.739 Z0.000 I-0.918 J-0.918 
G3 X14.261 Y15.115 Z0.000 I0.385 J-1.239 
G3 X15.885 Y14.261 Z0.000 I1.239 J0.385 
G3 X16.418 Y16.418 Z0.000 I-0.385 J1.239 
G0 X16.418 Y16.418 Z6.500 
(finish operation: RampEntryDressup009)
(begin operation: RampEntryDressup008)
(machine units: mm/min)
G0 X0.000 Y0.000 Z6.500 
G0 X16.418 Y-14.583 Z6.500 
G0 X16.418 Y-14.583 Z4.500 
G1 X16.191 Y-14.402 Z4.337 
G1 X15.934 Y-14.277 Z4.167 
G1 X15.656 Y-14.212 Z3.997 
G1 X15.366 Y-14.210 Z3.834 
G1 X15.075 Y-14.279 Z3.682 
G1 X14.812 Y-14.403 Z3.514 
G1 X14.588 Y-14.578 Z3.336 
G1 X14.410 Y-14.798 Z3.155 
G1 X14.285 Y-15.054 Z2.977 
G1 X14.217 Y-15.336 Z2.809 
G1 X14.210 Y-15.636 Z2.657 
G1 X14.266 Y-15.900 Z2.500 
G1 X14.210 Y-15.636 Z2.343 
G1 X14.217 Y-15.336 Z2.191 
G1 X14.285 Y-15.054 Z2.023 
G1 X14.410 Y-14.798 Z1.845 
G1 X14.588 Y-14.578 Z1.664 
G1 X14.812 Y-14.403 Z1.486 
G1 X15.075 Y-14.279 Z1.318 
G1 X15.366 Y-14.210 Z1.166 
G1 X15.656 Y-14.212 Z1.003 
G1 X15.934 Y-14.277 Z0.833 
G1 X16.191 Y-14.402 Z0.663 
G1 X16.418 Y-14.583 Z0.500 
G3 X15.366 Y-14.210 Z0.500 I-0.917 J-0.917 
G3 X14.210 Y-15.636 Z0.500 I0.134 J-1.290 
G3 X15.637 Y-16.790 Z0.500 I1.290 J0.136 
G3 X16.418 Y-14.583 Z0.500 I-0.137 J1.290 
G1 X16.252 Y-14.443 Z0.375 
G1 X16.066 Y-14.333 Z0.250 
G1 X16.252 Y-14.443 Z0.125 
G1 X16.418 Y-14.583 Z0.000 
G3 X15.366 Y-14.210 Z0.000 I-0.917 J-0.917 
G3 X14.210 Y-15.636 Z0.000 I0.134 J-1.290 
G3 X15.637 Y-16.790 Z0.000 I1.290 J0.136 
G3 X16.418 Y-14.583 Z0.000 I-0.137 J1.290 
G0 X16.418 Y-14.583 Z6.500 
(finish operation: RampEntryDressup008)
(begin operation: RampEntryDressup007)
(machine units: mm/min)
G0 X0.000 Y0.000 Z6.500 
G0 X-14.583 Y-14.582 Z6.500 
G0 X-14.583 Y-14.582 Z4.500 
G1 X-14.805 Y-14.405 Z4.343 
G1 X-15.056 Y-14.281 Z4.177 
G1 X-15.326 Y-14.214 Z4.009 
G1 X-15.605 Y-14.208 Z3.843 
G1 X-15.885 Y-14.261 Z3.686 
G1 X-16.159 Y-14.387 Z3.533 
G1 X-16.393 Y-14.562 Z3.364 
G1 X-16.579 Y-14.780 Z3.185 
G1 X-16.710 Y-15.033 Z3.002 
G1 X-16.781 Y-15.311 Z2.822 
G1 X-16.789 Y-15.604 Z2.653 
G1 X-16.734 Y-15.900 Z2.500 
G1 X-16.789 Y-15.604 Z2.347 
G1 X-16.781 Y-15.311 Z2.178 
G1 X-16.710 Y-15.033 Z1.998 
G1 X-16.579 Y-14.780 Z1.815 
G1 X-16.393 Y-14.562 Z1.636 
G1 X-16.159 Y-14.387 Z1.467 
G1 X-15.885 Y-14.261 Z1.314 
G1 X-15.605 Y-14.208 Z1.157 
G1 X-15.326 Y-14.214 Z0.991 
G1 X-15.056 Y-14.281 Z0.823 
G1 X-14.805 Y-14.405 Z0.657 
G1 X-14.583 Y-14.582 Z0.500 
G3 X-15.885 Y-14.261 Z0.500 I-0.917 J-0.917 
G3 X-15.366 Y-16.790 Z0.500 I0.385 J-1.239 
G1 X-15.099 Y-16.734 Z0.500 
G3 X-14.583 Y-14.582 Z0.500 I-0.401 J1.234 
G1 X-14.748 Y-14.443 Z0.375 
G1 X-14.934 Y-14.333 Z0.250 
G1 X-14.748 Y-14.443 Z0.125 
G1 X-14.583 Y-14.582 Z0.000 
G3 X-15.885 Y-14.261 Z0.000 I-0.917 J-0.917 
G3 X-15.366 Y-16.790 Z0.000 I0.385 J-1.239 
G1 X-15.099 Y-16.734 Z0.000 
G3 X-14.583 Y-14.582 Z0.000 I-0.401 J1.234 
G0 X-14.583 Y-14.582 Z6.500 
(finish operation: RampEntryDressup007)
(begin operation: RampEntryDressup)
(machine units: mm/min)
G0 X0.000 Y0.000 Z6.500 
G0 X4.129 Y2.983 Z6.500 
G0 X4.129 Y2.983 Z4.500 
G1 X3.949 Y3.002 Z4.395 
G1 X3.051 Y3.027 Z3.876 
G1 X2.738 Y3.218 Z3.664 
G1 X2.464 Y3.461 Z3.452 
G1 X1.997 Y3.751 Z3.136 
G1 X1.497 Y3.976 Z2.817 
G1 X0.970 Y4.136 Z2.500 
G1 X1.497 Y3.976 Z2.183 
G1 X1.997 Y3.751 Z1.864 
G1 X2.464 Y3.461 Z1.548 
G1 X2.738 Y3.218 Z1.336 
G1 X3.051 Y3.027 Z1.124 
G1 X3.949 Y3.002 Z0.605 
G1 X4.129 Y2.983 Z0.500 
G3 X3.949 Y3.002 Z0.500 I-0.145 J-0.496 
G3 X3.051 Y3.027 Z0.500 I-1.508 J-39.278 
G2 X2.464 Y3.461 Z0.500 I0.924 J1.859 
G3 X-2.897 Y3.111 Z0.500 I-2.466 J-3.467 
G2 X-3.211 Y3.000 Z0.500 I-0.315 J0.389 
G3 X-4.128 Y2.979 Z0.500 I-0.378 J-3.493 
G3 X-4.500 Y2.467 Z0.500 I0.137 J-0.491 
G1 X-4.500 Y-2.467 Z0.500 
G3 X-3.949 Y-3.002 Z0.500 I0.516 J-0.019 
G3 X-3.051 Y-3.027 Z0.500 I1.508 J39.279 
G2 X-2.464 Y-3.461 Z0.500 I-0.924 J-1.859 
G3 X1.041 Y-4.120 Z0.500 I2.464 J3.461 
G3 X2.897 Y-3.111 Z0.500 I-1.053 J4.150 
G2 X3.211 Y-3.000 Z0.500 I0.315 J-0.389 
G3 X4.128 Y-2.979 Z0.500 I0.378 J3.493 
G3 X4.500 Y-2.467 Z0.500 I-0.137 J0.491 
G1 X4.500 Y2.467 Z0.500 
G3 X4.129 Y2.983 Z0.500 I-0.516 J0.019 
G1 X3.949 Y3.002 Z0.395 
G1 X3.698 Y3.011 Z0.250 
G1 X3.949 Y3.002 Z0.105 
G1 X4.129 Y2.983 Z0.000 
G3 X3.949 Y3.002 Z0.000 I-0.145 J-0.496 
G3 X3.051 Y3.027 Z0.000 I-1.508 J-39.278 
G2 X2.464 Y3.461 Z0.000 I0.924 J1.859 
G3 X-2.897 Y3.111 Z0.000 I-2.466 J-3.467 
G2 X-3.211 Y3.000 Z0.000 I-0.315 J0.389 
G3 X-4.128 Y2.979 Z0.000 I-0.378 J-3.493 
G3 X-4.500 Y2.467 Z0.000 I0.137 J-0.491 
G1 X-4.500 Y-2.467 Z0.000 
G3 X-3.949 Y-3.002 Z0.000 I0.516 J-0.019 
G3 X-3.051 Y-3.027 Z0.000 I1.508 J39.279 
G2 X-2.464 Y-3.461 Z0.000 I-0.924 J-1.859 
G3 X1.041 Y-4.120 Z0.000 I2.464 J3.461 
G3 X2.897 Y-3.111 Z0.000 I-1.053 J4.150 
G2 X3.211 Y-3.000 Z0.000 I0.315 J-0.389 
G3 X4.128 Y-2.979 Z0.000 I0.378 J3.493 
G3 X4.500 Y-2.467 Z0.000 I-0.137 J0.491 
G1 X4.500 Y2.467 Z0.000 
G3 X4.129 Y2.983 Z0.000 I-0.516 J0.019 
G0 X4.129 Y2.983 Z6.500 
(finish operation: RampEntryDressup)
(begin operation: RampEntryDressup006)
(machine units: mm/min)
(Coolant On:Mist)
M7
G0 X0.000 Y0.000 Z6.500 
G0 X19.037 Y19.035 Z6.500 
G0 X19.037 Y19.035 Z4.500 
G1 X18.702 Y19.341 Z4.238 
G1 X18.341 Y19.614 Z3.976 
G1 X17.956 Y19.854 Z3.715 
G1 X17.485 Y20.089 Z3.412 
G1 X16.993 Y20.272 Z3.107 
G1 X16.484 Y20.402 Z2.802 
G1 X15.963 Y20.479 Z2.500 
G1 X16.484 Y20.402 Z2.198 
G1 X16.993 Y20.272 Z1.893 
G1 X17.485 Y20.089 Z1.588 
G1 X17.956 Y19.854 Z1.285 
G1 X18.341 Y19.614 Z1.024 
G1 X18.702 Y19.341 Z0.762 
G1 X19.037 Y19.035 Z0.500 
G3 X17.956 Y19.854 Z0.500 I-3.529 J-3.533 
G3 X11.074 Y13.195 Z0.500 I-2.457 J-4.347 
G1 X4.805 Y6.926 Z0.500 
G2 X4.126 Y6.852 Z0.500 I-0.382 J0.359 
G3 X-4.127 Y6.851 Z0.500 I-4.126 J-6.845 
G2 X-4.805 Y6.926 Z0.500 I-0.295 J0.431 
G1 X-11.075 Y13.197 Z0.500 
G3 X-19.854 Y17.956 Z0.500 I-4.427 J2.311 
G3 X-13.195 Y11.074 Z0.500 I4.347 J-2.457 
G1 X-6.926 Y4.805 Z0.500 
G2 X-6.852 Y4.126 Z0.500 I-0.359 J-0.382 
G3 X-6.851 Y-4.127 Z0.500 I6.845 J-4.126 
G2 X-6.926 Y-4.805 Z0.500 I-0.431 J-0.295 
G1 X-13.197 Y-11.075 Z0.500 
G3 X-17.956 Y-19.854 Z0.500 I-2.311 J-4.427 
G3 X-11.074 Y-13.195 Z0.500 I2.457 J4.347 
G1 X-4.805 Y-6.926 Z0.500 
G2 X-4.126 Y-6.852 Z0.500 I0.382 J-0.359 
G3 X4.127 Y-6.851 Z0.500 I4.126 J6.845 
G2 X4.805 Y-6.926 Z0.500 I0.295 J-0.431 
G1 X11.075 Y-13.197 Z0.500 
G3 X16.793 Y-20.329 Z0.500 I4.421 J-2.314 
G3 X14.654 Y-10.573 Z0.500 I-1.293 J4.829 
G3 X13.195 Y-11.074 Z0.500 I0.556 J-3.997 
G1 X6.926 Y-4.805 Z0.500 
G2 X6.852 Y-4.126 Z0.500 I0.359 J0.382 
G3 X6.851 Y4.127 Z0.500 I-6.845 J4.126 
G2 X6.926 Y4.805 Z0.500 I0.431 J0.295 
G1 X13.197 Y11.075 Z0.500 
G3 X19.037 Y19.035 Z0.500 I2.311 J4.427 
G1 X18.717 Y19.327 Z0.250 
G1 X19.037 Y19.035 Z0.000 
G3 X17.956 Y19.854 Z0.000 I-3.529 J-3.533 
G3 X11.074 Y13.195 Z0.000 I-2.457 J-4.347 
G1 X4.805 Y6.926 Z0.000 
G2 X4.126 Y6.852 Z0.000 I-0.382 J0.359 
G3 X-4.127 Y6.851 Z0.000 I-4.126 J-6.845 
G2 X-4.805 Y6.926 Z0.000 I-0.295 J0.431 
G1 X-11.075 Y13.197 Z0.000 
G3 X-19.854 Y17.956 Z0.000 I-4.427 J2.311 
G3 X-13.195 Y11.074 Z0.000 I4.347 J-2.457 
G1 X-6.926 Y4.805 Z0.000 
G2 X-6.852 Y4.126 Z0.000 I-0.359 J-0.382 
G3 X-6.851 Y-4.127 Z0.000 I6.845 J-4.126 
G2 X-6.926 Y-4.805 Z0.000 I-0.431 J-0.295 
G1 X-13.197 Y-11.075 Z0.000 
G3 X-17.956 Y-19.854 Z0.000 I-2.311 J-4.427 
G3 X-11.074 Y-13.195 Z0.000 I2.457 J4.347 
G1 X-4.805 Y-6.926 Z0.000 
G2 X-4.126 Y-6.852 Z0.000 I0.382 J-0.359 
G3 X4.127 Y-6.851 Z0.000 I4.126 J6.845 
G2 X4.805 Y-6.926 Z0.000 I0.295 J-0.431 
G1 X11.075 Y-13.197 Z0.000 
G3 X16.793 Y-20.329 Z0.000 I4.421 J-2.314 
G3 X14.654 Y-10.573 Z0.000 I-1.293 J4.829 
G3 X13.195 Y-11.074 Z0.000 I0.556 J-3.997 
G1 X6.926 Y-4.805 Z0.000 
G2 X6.852 Y-4.126 Z0.000 I0.359 J0.382 
G3 X6.851 Y4.127 Z0.000 I-6.845 J4.126 
G2 X6.926 Y4.805 Z0.000 I0.431 J0.295 
G1 X13.197 Y11.075 Z0.000 
G3 X19.037 Y19.035 Z0.000 I2.311 J4.427 
G0 X19.037 Y19.035 Z6.500 
(finish operation: RampEntryDressup006)
(Coolant Off:Mist)
M9
(begin postamble)
M05
G17 G54 G90 G80 G40
M2
