(Exported by FreeCAD)
(Post Processor: linuxcnc_post)
(Output Time:2023-10-27 00:58:55.284628)
(begin preamble)
G17 G54 G40 G49 G80 G90
G21
(begin operation: G54)
(machine units: mm/min)
G54 
G0 Z6.500 
(finish operation: G54)
(begin operation: TC: Default Tool)
(machine units: mm/min)
(TC: Default Tool) 
M5
M6 T1 
G43 H1 
(finish operation: TC: Default Tool)
(begin operation: RampEntryDressup)
(machine units: mm/min)
G0 X0.000 Y0.000 Z6.500 
G0 X18.181 Y18.181 Z6.500 
G0 X18.181 Y18.181 Z4.500 
G1 X17.744 Y18.564 Z4.174 
G1 X17.267 Y18.886 Z3.839 
G1 X16.754 Y19.143 Z3.500 
G1 X16.212 Y19.333 Z3.161 
G1 X15.649 Y19.452 Z2.826 
G1 X15.070 Y19.499 Z2.500 
G1 X15.649 Y19.452 Z2.174 
G1 X16.212 Y19.333 Z1.839 
G1 X16.754 Y19.143 Z1.500 
G1 X17.267 Y18.886 Z1.161 
G1 X17.744 Y18.564 Z0.826 
G1 X18.181 Y18.181 Z0.500 
G3 X14.985 Y19.500 Z0.500 I-3.184 J-3.184 
G1 X-14.985 Y19.500 Z0.500 
G3 X-19.500 Y14.985 Z0.500 I-0.013 J-4.502 
G1 X-19.500 Y-14.985 Z0.500 
G3 X-14.985 Y-19.500 Z0.500 I4.502 J-0.013 
G1 X14.985 Y-19.500 Z0.500 
G3 X19.500 Y-14.985 Z0.500 I0.013 J4.502 
G1 X19.500 Y14.985 Z0.500 
G3 X18.181 Y18.181 Z0.500 I-4.502 J0.013 
G1 X17.861 Y18.472 Z0.250 
G1 X18.181 Y18.181 Z0.000 
G3 X14.985 Y19.500 Z0.000 I-3.184 J-3.184 
G1 X-14.985 Y19.500 Z0.000 
G3 X-19.500 Y14.985 Z0.000 I-0.013 J-4.502 
G1 X-19.500 Y-14.985 Z0.000 
G3 X-14.985 Y-19.500 Z0.000 I4.502 J-0.013 
G1 X14.985 Y-19.500 Z0.000 
G3 X19.500 Y-14.985 Z0.000 I0.013 J4.502 
G1 X19.500 Y14.985 Z0.000 
G3 X18.181 Y18.181 Z0.000 I-4.502 J0.013 
G0 X18.181 Y18.181 Z6.500 
(finish operation: RampEntryDressup)
(begin operation: RampEntryDressup001)
(machine units: mm/min)
G0 X0.000 Y0.000 Z6.500 
G0 X18.181 Y18.181 Z6.500 
G0 X18.181 Y18.181 Z4.500 
G1 X17.744 Y18.564 Z4.174 
G1 X17.267 Y18.886 Z3.839 
G1 X16.754 Y19.143 Z3.500 
G1 X16.212 Y19.333 Z3.161 
G1 X15.649 Y19.452 Z2.826 
G1 X15.070 Y19.499 Z2.500 
G1 X15.649 Y19.452 Z2.174 
G1 X16.212 Y19.333 Z1.839 
G1 X16.754 Y19.143 Z1.500 
G1 X17.267 Y18.886 Z1.161 
G1 X17.744 Y18.564 Z0.826 
G1 X18.181 Y18.181 Z0.500 
G3 X14.985 Y19.500 Z0.500 I-3.184 J-3.184 
G1 X-14.985 Y19.500 Z0.500 
G3 X-19.500 Y14.985 Z0.500 I-0.013 J-4.502 
G1 X-19.500 Y-14.985 Z0.500 
G3 X-14.985 Y-19.500 Z0.500 I4.502 J-0.013 
G1 X14.985 Y-19.500 Z0.500 
G3 X19.500 Y-14.985 Z0.500 I0.013 J4.502 
G1 X19.500 Y14.985 Z0.500 
G3 X18.181 Y18.181 Z0.500 I-4.502 J0.013 
G1 X17.861 Y18.472 Z0.250 
G1 X18.181 Y18.181 Z0.000 
G3 X14.985 Y19.500 Z0.000 I-3.184 J-3.184 
G1 X-14.985 Y19.500 Z0.000 
G3 X-19.500 Y14.985 Z0.000 I-0.013 J-4.502 
G1 X-19.500 Y-14.985 Z0.000 
G3 X-14.985 Y-19.500 Z0.000 I4.502 J-0.013 
G1 X14.985 Y-19.500 Z0.000 
G3 X19.500 Y-14.985 Z0.000 I0.013 J4.502 
G1 X19.500 Y14.985 Z0.000 
G3 X18.181 Y18.181 Z0.000 I-4.502 J0.013 
G0 X18.181 Y18.181 Z6.500 
(finish operation: RampEntryDressup001)
(begin operation: RampEntryDressup002)
(machine units: mm/min)
G0 X0.000 Y0.000 Z6.500 
G0 X16.418 Y16.418 Z6.500 
G0 X16.418 Y16.418 Z4.500 
G1 X16.195 Y16.595 Z4.343 
G1 X15.944 Y16.719 Z4.177 
G1 X15.674 Y16.786 Z4.009 
G1 X15.395 Y16.792 Z3.843 
G1 X15.115 Y16.739 Z3.686 
G1 X14.843 Y16.614 Z3.534 
G1 X14.610 Y16.441 Z3.366 
G1 X14.425 Y16.225 Z3.188 
G1 X14.293 Y15.975 Z3.007 
G1 X14.220 Y15.700 Z2.829 
G1 X14.210 Y15.410 Z2.661 
G1 X14.261 Y15.115 Z2.509 
G1 X14.266 Y15.100 Z2.500 
G1 X14.261 Y15.115 Z2.491 
G1 X14.210 Y15.410 Z2.339 
G1 X14.220 Y15.700 Z2.171 
G1 X14.293 Y15.975 Z1.993 
G1 X14.425 Y16.225 Z1.812 
G1 X14.610 Y16.441 Z1.634 
G1 X14.843 Y16.614 Z1.466 
G1 X15.115 Y16.739 Z1.314 
G1 X15.395 Y16.792 Z1.157 
G1 X15.674 Y16.786 Z0.991 
G1 X15.944 Y16.719 Z0.823 
G1 X16.195 Y16.595 Z0.657 
G1 X16.418 Y16.418 Z0.500 
G3 X15.115 Y16.739 Z0.500 I-0.918 J-0.918 
G3 X14.261 Y15.115 Z0.500 I0.385 J-1.239 
G3 X15.885 Y14.261 Z0.500 I1.239 J0.385 
G3 X16.418 Y16.418 Z0.500 I-0.385 J1.239 
G1 X16.252 Y16.557 Z0.375 
G1 X16.066 Y16.667 Z0.250 
G1 X16.252 Y16.557 Z0.125 
G1 X16.418 Y16.418 Z0.000 
G3 X15.115 Y16.739 Z0.000 I-0.918 J-0.918 
G3 X14.261 Y15.115 Z0.000 I0.385 J-1.239 
G3 X15.885 Y14.261 Z0.000 I1.239 J0.385 
G3 X16.418 Y16.418 Z0.000 I-0.385 J1.239 
G0 X16.418 Y16.418 Z6.500 
(finish operation: RampEntryDressup002)
(begin operation: RampEntryDressup003)
(machine units: mm/min)
G0 X0.000 Y0.000 Z6.500 
G0 X-14.583 Y16.418 Z6.500 
G0 X-14.583 Y16.418 Z4.500 
G1 X-14.805 Y16.595 Z4.343 
G1 X-15.056 Y16.719 Z4.177 
G1 X-15.326 Y16.786 Z4.009 
G1 X-15.605 Y16.792 Z3.843 
G1 X-15.885 Y16.739 Z3.686 
G1 X-16.159 Y16.613 Z3.533 
G1 X-16.393 Y16.438 Z3.364 
G1 X-16.579 Y16.220 Z3.185 
G1 X-16.710 Y15.967 Z3.002 
G1 X-16.781 Y15.689 Z2.822 
G1 X-16.789 Y15.396 Z2.653 
G1 X-16.734 Y15.100 Z2.500 
G1 X-16.789 Y15.396 Z2.347 
G1 X-16.781 Y15.689 Z2.178 
G1 X-16.710 Y15.967 Z1.998 
G1 X-16.579 Y16.220 Z1.815 
G1 X-16.393 Y16.438 Z1.636 
G1 X-16.159 Y16.613 Z1.467 
G1 X-15.885 Y16.739 Z1.314 
G1 X-15.605 Y16.792 Z1.157 
G1 X-15.326 Y16.786 Z0.991 
G1 X-15.056 Y16.719 Z0.823 
G1 X-14.805 Y16.595 Z0.657 
G1 X-14.583 Y16.418 Z0.500 
G3 X-15.885 Y16.739 Z0.500 I-0.917 J-0.917 
G3 X-15.366 Y14.210 Z0.500 I0.385 J-1.239 
G1 X-15.099 Y14.266 Z0.500 
G3 X-14.583 Y16.418 Z0.500 I-0.401 J1.234 
G1 X-14.748 Y16.557 Z0.375 
G1 X-14.934 Y16.667 Z0.250 
G1 X-14.748 Y16.557 Z0.125 
G1 X-14.583 Y16.418 Z0.000 
G3 X-15.885 Y16.739 Z0.000 I-0.917 J-0.917 
G3 X-15.366 Y14.210 Z0.000 I0.385 J-1.239 
G1 X-15.099 Y14.266 Z0.000 
G3 X-14.583 Y16.418 Z0.000 I-0.401 J1.234 
G0 X-14.583 Y16.418 Z6.500 
(finish operation: RampEntryDressup003)
(begin operation: RampEntryDressup004)
(machine units: mm/min)
G0 X0.000 Y0.000 Z6.500 
G0 X9.351 Y17.351 Z6.500 
G0 X9.351 Y17.351 Z4.500 
G1 X9.238 Y17.436 Z4.419 
G1 X9.108 Y17.486 Z4.336 
G1 X8.967 Y17.500 Z4.256 
G1 X5.926 Y17.500 Z2.500 
G1 X8.967 Y17.500 Z0.744 
G1 X9.108 Y17.486 Z0.664 
G1 X9.238 Y17.436 Z0.581 
G1 X9.351 Y17.351 Z0.500 
G3 X8.967 Y17.500 Z0.500 I-0.362 J-0.362 
G1 X-8.967 Y17.500 Z0.500 
G3 X-9.500 Y16.967 Z0.500 I-0.021 J-0.511 
G1 X-9.500 Y15.033 Z0.500 
G3 X-8.967 Y14.500 Z0.500 I0.511 J-0.021 
G1 X8.967 Y14.500 Z0.500 
G3 X9.500 Y15.033 Z0.500 I0.021 J0.511 
G1 X9.500 Y16.967 Z0.500 
G3 X9.351 Y17.351 Z0.500 I-0.511 J0.021 
G1 X9.238 Y17.436 Z0.419 
G1 X9.108 Y17.486 Z0.336 
G1 X8.967 Y17.500 Z0.256 
G1 X8.958 Y17.500 Z0.250 
G1 X8.967 Y17.500 Z0.244 
G1 X9.108 Y17.486 Z0.164 
G1 X9.238 Y17.436 Z0.081 
G1 X9.351 Y17.351 Z0.000 
G3 X8.967 Y17.500 Z0.000 I-0.362 J-0.362 
G1 X-8.967 Y17.500 Z0.000 
G3 X-9.500 Y16.967 Z0.000 I-0.021 J-0.511 
G1 X-9.500 Y15.033 Z0.000 
G3 X-8.967 Y14.500 Z0.000 I0.511 J-0.021 
G1 X8.967 Y14.500 Z0.000 
G3 X9.500 Y15.033 Z0.000 I0.021 J0.511 
G1 X9.500 Y16.967 Z0.000 
G3 X9.351 Y17.351 Z0.000 I-0.511 J0.021 
G0 X9.351 Y17.351 Z6.500 
(finish operation: RampEntryDressup004)
(begin operation: RampEntryDressup005)
(machine units: mm/min)
G0 X0.000 Y0.000 Z6.500 
G0 X4.129 Y2.983 Z6.500 
G0 X4.129 Y2.983 Z4.500 
G1 X3.949 Y3.002 Z4.395 
G1 X3.051 Y3.027 Z3.876 
G1 X2.738 Y3.218 Z3.664 
G1 X2.464 Y3.461 Z3.452 
G1 X1.997 Y3.751 Z3.136 
G1 X1.497 Y3.976 Z2.817 
G1 X0.970 Y4.136 Z2.500 
G1 X1.497 Y3.976 Z2.183 
G1 X1.997 Y3.751 Z1.864 
G1 X2.464 Y3.461 Z1.548 
G1 X2.738 Y3.218 Z1.336 
G1 X3.051 Y3.027 Z1.124 
G1 X3.949 Y3.002 Z0.605 
G1 X4.129 Y2.983 Z0.500 
G3 X3.949 Y3.002 Z0.500 I-0.145 J-0.496 
G3 X3.051 Y3.027 Z0.500 I-1.508 J-39.278 
G2 X2.464 Y3.461 Z0.500 I0.924 J1.859 
G3 X-2.897 Y3.111 Z0.500 I-2.466 J-3.467 
G2 X-3.211 Y3.000 Z0.500 I-0.315 J0.389 
G3 X-4.128 Y2.979 Z0.500 I-0.378 J-3.493 
G3 X-4.500 Y2.467 Z0.500 I0.137 J-0.491 
G1 X-4.500 Y-2.467 Z0.500 
G3 X-3.949 Y-3.002 Z0.500 I0.516 J-0.019 
G3 X-3.051 Y-3.027 Z0.500 I1.508 J39.280 
G2 X-2.464 Y-3.461 Z0.500 I-0.924 J-1.859 
G3 X1.041 Y-4.120 Z0.500 I2.464 J3.461 
G3 X2.897 Y-3.111 Z0.500 I-1.053 J4.150 
G2 X3.211 Y-3.000 Z0.500 I0.315 J-0.389 
G3 X4.128 Y-2.979 Z0.500 I0.378 J3.493 
G3 X4.500 Y-2.467 Z0.500 I-0.137 J0.491 
G1 X4.500 Y2.467 Z0.500 
G3 X4.129 Y2.983 Z0.500 I-0.516 J0.019 
G1 X3.949 Y3.002 Z0.395 
G1 X3.698 Y3.011 Z0.250 
G1 X3.949 Y3.002 Z0.105 
G1 X4.129 Y2.983 Z0.000 
G3 X3.949 Y3.002 Z0.000 I-0.145 J-0.496 
G3 X3.051 Y3.027 Z0.000 I-1.508 J-39.278 
G2 X2.464 Y3.461 Z0.000 I0.924 J1.859 
G3 X-2.897 Y3.111 Z0.000 I-2.466 J-3.467 
G2 X-3.211 Y3.000 Z0.000 I-0.315 J0.389 
G3 X-4.128 Y2.979 Z0.000 I-0.378 J-3.493 
G3 X-4.500 Y2.467 Z0.000 I0.137 J-0.491 
G1 X-4.500 Y-2.467 Z0.000 
G3 X-3.949 Y-3.002 Z0.000 I0.516 J-0.019 
G3 X-3.051 Y-3.027 Z0.000 I1.508 J39.280 
G2 X-2.464 Y-3.461 Z0.000 I-0.924 J-1.859 
G3 X1.041 Y-4.120 Z0.000 I2.464 J3.461 
G3 X2.897 Y-3.111 Z0.000 I-1.053 J4.150 
G2 X3.211 Y-3.000 Z0.000 I0.315 J-0.389 
G3 X4.128 Y-2.979 Z0.000 I0.378 J3.493 
G3 X4.500 Y-2.467 Z0.000 I-0.137 J0.491 
G1 X4.500 Y2.467 Z0.000 
G3 X4.129 Y2.983 Z0.000 I-0.516 J0.019 
G0 X4.129 Y2.983 Z6.500 
(finish operation: RampEntryDressup005)
(begin operation: RampEntryDressup006)
(machine units: mm/min)
(Coolant On:Mist)
M7
G0 X0.000 Y0.000 Z6.500 
G0 X18.888 Y18.889 Z6.500 
G0 X18.888 Y18.889 Z4.500 
G1 X18.457 Y19.276 Z4.171 
G1 X17.991 Y19.615 Z3.837 
G1 X17.493 Y19.902 Z3.500 
G1 X16.967 Y20.135 Z3.163 
G1 X16.419 Y20.313 Z2.829 
G1 X15.852 Y20.433 Z2.500 
G1 X16.419 Y20.313 Z2.171 
G1 X16.967 Y20.135 Z1.837 
G1 X17.493 Y19.902 Z1.500 
G1 X17.991 Y19.615 Z1.163 
G1 X18.457 Y19.276 Z0.829 
G1 X18.888 Y18.889 Z0.500 
G3 X15.000 Y20.500 Z0.500 I-3.890 J-3.889 
G1 X-15.030 Y20.499 Z0.500 
G3 X-20.500 Y15.000 Z0.500 I0.031 J-5.501 
G1 X-20.499 Y-15.030 Z0.500 
G3 X-15.000 Y-20.500 Z0.500 I5.501 J0.031 
G1 X15.030 Y-20.499 Z0.500 
G3 X20.500 Y-15.000 Z0.500 I-0.031 J5.501 
G1 X20.499 Y15.030 Z0.500 
G3 X18.888 Y18.889 Z0.500 I-5.501 J-0.031 
G1 X18.570 Y19.182 Z0.250 
G1 X18.888 Y18.889 Z0.000 
G3 X15.000 Y20.500 Z0.000 I-3.890 J-3.889 
G1 X-15.030 Y20.499 Z0.000 
G3 X-20.500 Y15.000 Z0.000 I0.031 J-5.501 
G1 X-20.499 Y-15.030 Z0.000 
G3 X-15.000 Y-20.500 Z0.000 I5.501 J0.031 
G1 X15.030 Y-20.499 Z0.000 
G3 X20.500 Y-15.000 Z0.000 I-0.031 J5.501 
G1 X20.499 Y15.030 Z0.000 
G3 X18.888 Y18.889 Z0.000 I-5.501 J-0.031 
G0 X18.888 Y18.889 Z6.500 
(finish operation: RampEntryDressup006)
(Coolant Off:Mist)
M9
(begin postamble)
M05
G17 G54 G90 G80 G40
M2
